dist/images/logo.svg

<?xml version="1.0" encoding="UTF-8" standalone="no"?><svg width="141" height="89" viewBox="0 0 141 89" fill="none" xmlns="http://www.w3.org/2000/svg">
<path fill-rule="evenodd" clip-rule="evenodd" d="M46.1773 4.00225L39 4.00279V4.00217L13.8112 4.00509L10.9242 8.00354H49.0663L46.1773 4.00225ZM53.9999 8.00354H58V12.0035H2V8.00354H5.98767L11.7634 0.00407248L11.7734 0.0112613V0.00532138L43.9998 0.00158691V0.0024108L48.2183 0.00209249L48.2212 0L48.2227 0.00209216L48.2294 0.00209165V0.0113411L53.9999 8.00354ZM0.00219727 16.0035H60.0022V20.0035H4.14387L19.4438 76.0035H40.5498L54.7541 24.014L54.7561 24.0145V24.005L72.3462 24.0019V24.0035H73.4314L65.8414 51.9944V52.0037L51.2545 52.0062L44.0023 78.5505V78.5563L43.6068 80.0035H16.3848L15.292 76.0035H15.3009L0 20.0002L0.00219727 19.9996V16.0035ZM57.8121 28.0045L68.1987 28.0027L62.7751 48.0042L52.3474 48.006L57.8121 28.0045ZM34.2904 68.0035H25.6986L13.6771 24.0035H9.53418L22.6485 72.0036H26.7914H33.1975H37.3405L50.4548 24.0035H46.3118L34.2904 68.0035ZM16.0055 84.0032L43.9985 83.9983L43.9992 87.9983L16.0062 88.0032L16.0055 84.0032ZM88.459 46.1289C85.8223 46.1289 83.7832 45.417 82.3418 43.9932C80.9004 42.5518 80.1797 40.5303 80.1797 37.9287V26.4854C80.1797 23.7607 80.9004 21.6514 82.3418 20.1572C83.7832 18.6455 85.8223 17.8896 88.459 17.8896C91.1133 17.8896 93.1611 18.6455 94.6025 20.1572C96.0615 21.6514 96.791 23.7783 96.791 26.5381V26.749H93.1787V26.5381C93.1787 24.9209 92.7744 23.6641 91.9658 22.7676C91.1572 21.8711 90.0146 21.4229 88.5381 21.4229C87.0967 21.4229 85.9717 21.8623 85.1631 22.7412C84.3721 23.6201 83.9766 24.8682 83.9766 26.4854V37.9287C83.9766 39.4229 84.3721 40.5742 85.1631 41.3828C85.9717 42.1914 87.0967 42.5957 88.5381 42.5957C90.0146 42.5957 91.1572 42.1826 91.9658 41.3564C92.7744 40.5127 93.1787 39.335 93.1787 37.8232V37.6123H96.8438V37.8232C96.8438 40.46 96.1143 42.5078 94.6553 43.9668C93.1963 45.4082 91.1309 46.1289 88.459 46.1289ZM112.796 45.7334V42.7221C112.286 43.7327 111.627 44.5167 110.818 45.0742C109.816 45.7773 108.568 46.1289 107.074 46.1289C104.947 46.1289 103.295 45.4609 102.117 44.125C100.957 42.7715 100.377 40.873 100.377 38.4297V18.3643H104.147V38.4297C104.147 39.748 104.525 40.7764 105.281 41.5146C106.037 42.2354 107.109 42.5957 108.498 42.5957C109.939 42.5957 111.012 42.2441 111.715 41.541C112.436 40.8203 112.796 39.748 112.796 38.3242V18.3643H116.566V45.7334H112.796ZM122.367 18.3643H126.164V21.6376C126.703 20.637 127.415 19.8271 128.3 19.208C129.53 18.3291 130.849 17.8896 132.255 17.8896C134.347 17.8896 135.964 18.6543 137.106 20.1836C138.249 21.7129 138.82 23.875 138.82 26.6699V37.1904C138.82 40.0381 138.223 42.2441 137.027 43.8086C135.85 45.3555 134.171 46.1289 131.991 46.1289C130.532 46.1289 129.231 45.7246 128.089 44.916C127.237 44.3003 126.596 43.4991 126.164 42.5124V56.8604H122.367V18.3643ZM126.164 37.2959V26.5908C126.164 25.4307 126.331 24.4463 126.665 23.6377C127.017 22.8291 127.526 22.2139 128.194 21.792C128.862 21.3701 129.662 21.1592 130.594 21.1592C132.035 21.1592 133.151 21.6426 133.942 22.6094C134.751 23.5762 135.155 24.9385 135.155 26.6963V37.1904C135.155 39.001 134.751 40.3984 133.942 41.3828C133.151 42.3672 132.035 42.8594 130.594 42.8594C129.662 42.8594 128.862 42.6396 128.194 42.2002C127.526 41.7607 127.017 41.1279 126.665 40.3018C126.331 39.4756 126.164 38.4736 126.164 37.2959ZM85.7568 81.0044C83.9984 81.0044 82.6133 80.5046 81.6016 79.5049C80.5898 78.4932 80.084 77.1201 80.084 75.3857V75.2412H83.4805V75.3857C83.4805 76.1927 83.6792 76.825 84.0767 77.2827C84.4741 77.7284 85.0342 77.9512 85.7568 77.9512C86.4674 77.9512 87.0215 77.7344 87.4189 77.3008C87.8285 76.8672 88.0332 76.271 88.0332 75.5122C88.0332 74.9341 87.8887 74.4884 87.5996 74.1753C87.3226 73.8501 86.9492 73.5851 86.4795 73.3804C86.0218 73.1756 85.522 72.9769 84.98 72.7842C84.438 72.5794 83.89 72.3506 83.3359 72.0977C82.7939 71.8327 82.2941 71.5015 81.8364 71.104C81.3787 70.6945 81.0114 70.1766 80.7344 69.5503C80.4574 68.9119 80.3188 68.123 80.3188 67.1836C80.3188 65.4613 80.7886 64.1123 81.728 63.1367C82.6795 62.1491 83.9743 61.6553 85.6123 61.6553C87.2624 61.6553 88.5571 62.125 89.4966 63.0645C90.436 63.9919 90.9058 65.2746 90.9058 66.9126V67.021H87.5093V66.8765C87.5093 66.202 87.3407 65.672 87.0034 65.2866C86.6782 64.9012 86.2145 64.7085 85.6123 64.7085C85.0221 64.7085 84.5584 64.9193 84.2212 65.3408C83.8839 65.7624 83.7153 66.3525 83.7153 67.1113C83.7153 67.6774 83.8478 68.1291 84.1128 68.4663C84.3778 68.7915 84.721 69.0505 85.1426 69.2432C85.5762 69.4359 86.0459 69.6165 86.5518 69.7852C87.1178 69.9658 87.6839 70.1706 88.25 70.3994C88.8281 70.6283 89.3521 70.9414 89.8218 71.3389C90.3036 71.7363 90.689 72.2663 90.978 72.9287C91.2791 73.5911 91.4297 74.4523 91.4297 75.5122C91.4297 77.2225 90.9238 78.5654 89.9121 79.541C88.9004 80.5166 87.5153 81.0044 85.7568 81.0044ZM99.1982 80.8237C97.6445 80.8237 96.5184 80.3962 95.8198 79.541C95.1333 78.6859 94.79 77.4574 94.79 75.8555V65.2324H92.875V61.9805H94.79V56.5244H98.2227V61.9805H100.969V65.2324H98.2227V75.8555C98.2227 76.3975 98.3371 76.819 98.5659 77.1201C98.8068 77.4212 99.1501 77.5718 99.5957 77.5718H100.969V80.8237H99.1982ZM109.099 81.0044C107.388 81.0044 106.057 80.5286 105.106 79.5771C104.154 78.6256 103.679 77.2887 103.679 75.5664V67.0029C103.679 65.2926 104.154 63.9738 105.106 63.0464C106.057 62.119 107.388 61.6553 109.099 61.6553C110.809 61.6553 112.128 62.119 113.055 63.0464C113.983 63.9738 114.446 65.2926 114.446 67.0029V75.6206C114.446 77.3309 113.983 78.6558 113.055 79.5952C112.128 80.5347 110.809 81.0044 109.099 81.0044ZM109.062 77.6621C109.677 77.6621 110.153 77.4754 110.49 77.1021C110.839 76.7166 111.014 76.1746 111.014 75.4761V67.1475C111.014 66.473 110.839 65.9491 110.49 65.5757C110.153 65.1903 109.677 64.9976 109.062 64.9976C108.46 64.9976 107.985 65.1903 107.635 65.5757C107.286 65.9491 107.111 66.473 107.111 67.1475V75.4761C107.111 76.1746 107.286 76.7166 107.635 77.1021C107.985 77.4754 108.46 77.6621 109.062 77.6621ZM118.06 80.7334V61.9805H121.492V64.6117C122.03 63.7907 122.681 63.1244 123.443 62.6128C124.407 61.9744 125.473 61.6553 126.641 61.6553V65.0879H126.37H125.991C124.594 65.0879 123.498 65.4312 122.703 66.1177C121.92 66.8042 121.516 67.7376 121.492 68.918V80.7334H118.06ZM134.608 81.0044C132.802 81.0044 131.399 80.4624 130.399 79.3784C129.399 78.2944 128.899 76.7648 128.899 74.7896V68.2314C128.899 66.1357 129.387 64.5158 130.363 63.3716C131.338 62.2274 132.705 61.6553 134.464 61.6553C136.258 61.6553 137.644 62.1852 138.619 63.2451C139.595 64.305 140.083 65.8045 140.083 67.7437V72.6938H132.188V74.8799C132.188 75.7952 132.398 76.5119 132.82 77.0298C133.241 77.5356 133.838 77.7886 134.608 77.7886C135.319 77.7886 135.867 77.6019 136.252 77.2285C136.65 76.8431 136.849 76.3011 136.849 75.6025V75.4761H140.137V75.6025C140.137 77.3128 139.655 78.6437 138.691 79.5952C137.728 80.5347 136.367 81.0044 134.608 81.0044ZM132.188 68.0327V69.8574H136.794V67.8159C136.794 66.8403 136.59 66.0876 136.18 65.5576C135.783 65.0277 135.211 64.7627 134.464 64.7627C133.741 64.7627 133.181 65.0457 132.784 65.6118C132.386 66.1779 132.188 66.9849 132.188 68.0327Z" fill="#FFEED3"/>
</svg>

<svg width="141" height="89" fill="none" xmlns="http://www.w3.org/2000/svg"><path fill-rule="evenodd" clip-rule="evenodd" d="M46.177 4.002H39l-25.189.003-2.887 3.999h38.142l-2.889-4.002zM54 8.004h4v4H2v-4h3.988l5.775-8 .01.007V.005L44 .002h4.218L48.221 0l.002.002h.006v.01L54 8.003zm-53.998 8h60v4H4.144l15.3 56H40.55l14.204-51.99h.002v-.009l17.59-.003v.002h1.085l-7.59 27.99v.01l-14.586.002-7.253 26.544v.006l-.395 1.448H16.385l-1.093-4h.009L0 20h.002v-3.997zm57.81 12l10.387-.001-5.424 20.001-10.428.002 5.465-20.002zm-23.522 40H25.7l-12.022-44H9.534l13.114 48H37.34l13.115-48h-4.143l-12.022 44zm-18.284 16l27.992-.006.001 4-27.993.005v-4zm72.453-37.875c-2.637 0-4.676-.712-6.117-2.136-1.442-1.441-2.162-3.463-2.162-6.064V26.485c0-2.724.72-4.834 2.162-6.328 1.441-1.512 3.48-2.267 6.117-2.267 2.654 0 4.702.755 6.144 2.267 1.459 1.494 2.188 3.621 2.188 6.381v.211h-3.612v-.21c0-1.618-.405-2.875-1.213-3.771-.809-.897-1.951-1.345-3.428-1.345-1.441 0-2.566.44-3.375 1.318-.79.88-1.186 2.127-1.186 3.744V37.93c0 1.494.395 2.645 1.186 3.454.809.808 1.934 1.213 3.375 1.213 1.477 0 2.62-.413 3.428-1.24.808-.843 1.213-2.021 1.213-3.533v-.21h3.665v.21c0 2.637-.73 4.685-2.189 6.144-1.459 1.441-3.524 2.162-6.196 2.162zm24.337-.396v-3.01c-.51 1.01-1.169 1.794-1.978 2.351-1.002.703-2.25 1.055-3.744 1.055-2.127 0-3.779-.668-4.957-2.004-1.16-1.353-1.74-3.252-1.74-5.695V18.364h3.77V38.43c0 1.318.378 2.346 1.134 3.085.756.72 1.828 1.08 3.217 1.08 1.441 0 2.514-.35 3.217-1.054.721-.72 1.081-1.793 1.081-3.217v-19.96h3.77v27.37h-3.77zm9.571-27.369h3.797v3.274a6.917 6.917 0 012.136-2.43c1.23-.879 2.549-1.318 3.955-1.318 2.092 0 3.709.764 4.851 2.294 1.143 1.529 1.714 3.691 1.714 6.486v10.52c0 2.848-.597 5.054-1.793 6.619-1.177 1.547-2.856 2.32-5.036 2.32-1.459 0-2.76-.404-3.902-1.213a5.752 5.752 0 01-1.925-2.404V56.86h-3.797V18.364zm3.797 18.932V26.59c0-1.16.167-2.145.501-2.953.352-.809.861-1.424 1.529-1.846.668-.422 1.468-.633 2.4-.633 1.441 0 2.557.484 3.348 1.45.809.967 1.213 2.33 1.213 4.087V37.19c0 1.811-.404 3.208-1.213 4.193-.791.984-1.907 1.476-3.348 1.476-.932 0-1.732-.22-2.4-.659-.668-.44-1.177-1.072-1.529-1.898-.334-.826-.501-1.828-.501-3.006zM85.757 81.004c-1.759 0-3.144-.5-4.155-1.5-1.012-1.01-1.518-2.384-1.518-4.118v-.145h3.397v.145c0 .807.198 1.439.596 1.897.397.445.957.668 1.68.668.71 0 1.264-.217 1.662-.65.41-.434.614-1.03.614-1.789 0-.578-.144-1.024-.433-1.337-.277-.325-.65-.59-1.12-.795a20.46 20.46 0 00-1.5-.596 26.64 26.64 0 01-1.644-.686 6.9 6.9 0 01-1.5-.994 4.48 4.48 0 01-1.102-1.554c-.277-.638-.415-1.427-.415-2.366 0-1.723.47-3.072 1.409-4.047.952-.988 2.246-1.482 3.884-1.482 1.65 0 2.945.47 3.885 1.41.939.927 1.409 2.21 1.409 3.848v.108h-3.397v-.145c0-.674-.168-1.204-.506-1.59-.325-.385-.788-.578-1.39-.578-.59 0-1.055.211-1.392.633-.337.421-.506 1.012-.506 1.77 0 .566.133 1.018.398 1.355a2.79 2.79 0 001.03.777c.433.193.903.374 1.409.542.566.18 1.132.386 1.698.614a5.617 5.617 0 011.572.94c.482.397.867.927 1.156 1.59.301.662.452 1.523.452 2.583 0 1.71-.506 3.053-1.518 4.029s-2.397 1.463-4.155 1.463zm13.441-.18c-1.553 0-2.68-.428-3.378-1.283-.687-.855-1.03-2.084-1.03-3.685V65.232h-1.915V61.98h1.915v-5.456h3.433v5.456h2.746v3.252h-2.746v10.624c0 .541.114.963.343 1.264.24.301.584.452 1.03.452h1.373v3.252h-1.77zm9.901.18c-1.711 0-3.042-.475-3.993-1.427-.952-.951-1.427-2.288-1.427-4.01v-8.564c0-1.71.475-3.03 1.427-3.957.951-.927 2.282-1.39 3.993-1.39 1.71 0 3.029.463 3.956 1.39.928.928 1.391 2.247 1.391 3.957v8.618c0 1.71-.463 3.035-1.391 3.974-.927.94-2.246 1.41-3.956 1.41zm-.037-3.342c.615 0 1.091-.187 1.428-.56.349-.385.524-.927.524-1.626v-8.329c0-.674-.175-1.198-.524-1.571-.337-.386-.813-.578-1.428-.578-.602 0-1.077.192-1.427.578-.349.373-.524.897-.524 1.572v8.328c0 .699.175 1.24.524 1.626.35.373.825.56 1.427.56zm8.998 3.071V61.98h3.432v2.632a6.978 6.978 0 011.951-2 5.67 5.67 0 013.198-.957v3.433h-.65c-1.397 0-2.493.343-3.288 1.03-.783.686-1.187 1.62-1.211 2.8v11.815h-3.432zm16.548.271c-1.806 0-3.209-.542-4.209-1.626-1-1.084-1.5-2.613-1.5-4.588v-6.56c0-2.095.488-3.715 1.464-4.86.975-1.144 2.342-1.716 4.101-1.716 1.794 0 3.18.53 4.155 1.59.976 1.06 1.464 2.56 1.464 4.499v4.95h-7.895v2.186c0 .915.21 1.632.632 2.15.421.506 1.018.759 1.788.759.711 0 1.259-.187 1.644-.56.398-.386.597-.928.597-1.626v-.127h3.288v.127c0 1.71-.482 3.04-1.446 3.992-.963.94-2.324 1.41-4.083 1.41zm-2.42-12.971v1.824h4.606v-2.041c0-.976-.204-1.728-.614-2.258-.397-.53-.969-.795-1.716-.795-.723 0-1.283.283-1.68.849-.398.566-.596 1.373-.596 2.42z" fill="#FFEED3"/></svg>
